dist/img/vacation.svg

<svg width="48" height="48" viewBox="0 0 48 48" fill="none" xmlns="http://www.w3.org/2000/svg">
<path d="M42.8438 11.3438H40.5V44.1562H42.8438C45.6869 44.1562 48 41.8432 48 39V16.5C48 13.6568 45.6869 11.3438 42.8438 11.3438Z" fill="#5A73EF"/>
<path d="M0 16.5V39C0 41.8432 2.31309 44.1562 5.15625 44.1562H7.5V11.3438H5.15625C2.31309 11.3438 0 13.6568 0 16.5Z" fill="#5A73EF"/>
<path d="M32.9062 8.0625C32.9062 5.73628 31.0137 3.84375 28.6875 3.84375H19.3125C16.9863 3.84375 15.0938 5.73628 15.0938 8.0625V11.3438H10.3125V44.1562H37.6875V11.3438H32.9062V8.0625ZM26.9796 30.8428L20.4844 34.5928C19.8118 34.9811 18.9517 34.7507 18.5634 34.0781L13.4072 25.1472C13.1858 24.7639 13.1579 24.2988 13.3318 23.8917L14.8365 20.3693C14.2244 19.5325 13.4029 18.0765 13.4185 16.3001C13.4186 16.2931 13.4187 16.2862 13.4189 16.279C13.4483 15.038 13.8361 13.9041 14.6042 12.8126C14.9626 12.3034 15.4028 11.8135 15.9211 11.3437H17.9062V8.0625C17.9062 7.28709 18.5371 6.65625 19.3125 6.65625H28.6875C29.4629 6.65625 30.0938 7.28709 30.0938 8.0625V11.3438H21.1188C18.8602 12.394 16.2922 14.0803 16.2308 16.3356C16.2254 17.4059 16.8103 18.3311 17.1738 18.8022L21.2885 19.298C21.7279 19.3509 22.1167 19.6077 22.3381 19.991L27.4943 28.9218C27.8827 29.5944 27.6521 30.4545 26.9796 30.8428ZM34.7812 21.1875C34.7812 23.5137 32.8887 25.4062 30.5625 25.4062C28.2363 25.4062 26.3438 23.5137 26.3438 21.1875C26.3438 18.8613 28.2363 16.9688 30.5625 16.9688C32.8887 16.9688 34.7812 18.8613 34.7812 21.1875Z" fill="#5A73EF"/>
<path d="M17.3452 21.6558L16.1943 24.3499L20.2959 31.454L24.3555 29.1103L20.2539 22.0061L17.3452 21.6558Z" fill="#5A73EF"/>
<path d="M30.5625 22.5938C31.3392 22.5938 31.9688 21.9642 31.9688 21.1875C31.9688 20.4108 31.3392 19.7812 30.5625 19.7812C29.7858 19.7812 29.1562 20.4108 29.1562 21.1875C29.1562 21.9642 29.7858 22.5938 30.5625 22.5938Z" fill="#5A73EF"/>
</svg>

<svg xmlns="http://www.w3.org/2000/svg" fill="none" viewBox="0 0 48 48">
  <path fill="#5A73EF" d="M42.844 11.344H40.5v32.812h2.344A5.162 5.162 0 0 0 48 39V16.5a5.162 5.162 0 0 0-5.156-5.156ZM0 16.5V39a5.162 5.162 0 0 0 5.156 5.156H7.5V11.344H5.156A5.162 5.162 0 0 0 0 16.5ZM32.906 8.063a4.224 4.224 0 0 0-4.218-4.22h-9.375a4.224 4.224 0 0 0-4.22 4.22v3.28h-4.78v32.813h27.374V11.344h-4.78V8.063Zm-5.926 22.78-6.496 3.75a1.406 1.406 0 0 1-1.92-.515l-5.157-8.93a1.406 1.406 0 0 1-.075-1.256l1.504-3.523c-.612-.837-1.433-2.293-1.418-4.069v-.021c.03-1.241.418-2.375 1.186-3.466.359-.51.799-1 1.317-1.47h1.985v-3.28c0-.776.631-1.407 1.407-1.407h9.375c.775 0 1.406.631 1.406 1.407v3.28h-8.975c-2.259 1.051-4.827 2.737-4.888 4.993-.006 1.07.58 1.995.943 2.466l4.114.496c.44.053.829.31 1.05.693l5.156 8.93a1.406 1.406 0 0 1-.514 1.922Zm7.801-9.655a4.223 4.223 0 0 1-4.218 4.218 4.223 4.223 0 0 1-4.22-4.218 4.223 4.223 0 0 1 4.22-4.22 4.223 4.223 0 0 1 4.218 4.22Z"/>
  <path fill="#5A73EF" d="m17.345 21.656-1.15 2.694 4.1 7.104 4.06-2.344-4.101-7.104-2.909-.35ZM30.563 22.594a1.406 1.406 0 1 0 0-2.813 1.406 1.406 0 0 0 0 2.813Z"/>
</svg>
